dist/icons/svgs/pen-to-square-outline.svg

<svg xmlns="http://www.w3.org/2000/svg" width="24" height="24" fill="currentcolor" class="icon-pen-to-square-outline" viewBox="0 0 24 24">
  <path d="M19.2266 4.30469H19.1875C18.8359 3.95312 18.25 3.95312 17.8984 4.30469L16.7266 5.4375L18.5625 7.27344L19.6953 6.10156C20.0469 5.75 20.0469 5.16406 19.6953 4.77344L19.2266 4.30469ZM10.1641 12.0391C10.0469 12.1172 9.96875 12.2734 9.92969 12.4297L9.26562 14.6953L11.5703 14.0703C11.7266 14.0312 11.8438 13.9531 11.9609 13.8359L17.2344 8.5625L15.4375 6.76562L10.1641 12.0391ZM16.5703 2.97656C17.6641 1.88281 19.4219 1.88281 20.5156 2.97656L21.0234 3.48438C22.1172 4.57812 22.1172 6.33594 21.0234 7.42969L13.2891 15.1641C12.9766 15.4766 12.5469 15.7109 12.0781 15.8672L8.17188 16.9609C7.85938 17.0781 7.50781 17 7.27344 16.7266C7 16.4922 6.92188 16.1406 7 15.8281L8.13281 11.9219C8.25 11.4531 8.52344 11.0234 8.83594 10.7109L16.5703 2.97656ZM5.4375 4.5H9.8125C10.3203 4.5 10.75 4.92969 10.75 5.4375C10.75 5.98438 10.3203 6.375 9.8125 6.375H5.4375C4.53906 6.375 3.875 7.07812 3.875 7.9375V18.5625C3.875 19.4609 4.53906 20.125 5.4375 20.125H16.0625C16.9219 20.125 17.625 19.4609 17.625 18.5625V14.1875C17.625 13.6797 18.0156 13.25 18.5625 13.25C19.0703 13.25 19.5 13.6797 19.5 14.1875V18.5625C19.5 20.4766 17.9375 22 16.0625 22H5.4375C3.52344 22 2 20.4766 2 18.5625V7.9375C2 6.0625 3.52344 4.5 5.4375 4.5Z"/>
</svg>

<svg xmlns="http://www.w3.org/2000/svg" width="24" height="24" fill="currentColor" class="icon-pen-to-square-outline" viewBox="0 0 24 24">
  <path d="M19.227 4.305h-.04a.92.92 0 0 0-1.289 0l-1.171 1.133 1.835 1.835 1.133-1.171c.352-.352.352-.938 0-1.329zm-9.063 7.734c-.117.078-.195.234-.234.39l-.664 2.266 2.304-.625a.8.8 0 0 0 .39-.234l5.274-5.273-1.797-1.797zm6.406-9.062a2.78 2.78 0 0 1 3.946 0l.507.507a2.78 2.78 0 0 1 0 3.946l-7.734 7.734c-.312.313-.742.547-1.21.703l-3.907 1.094a.8.8 0 0 1-.899-.234.89.89 0 0 1-.273-.899l1.133-3.906c.117-.469.39-.899.703-1.211zM5.438 4.5h4.375a.95.95 0 0 1 .937.938c0 .546-.43.937-.937.937H5.437c-.898 0-1.562.703-1.562 1.563v10.625c0 .898.664 1.562 1.563 1.562h10.625c.859 0 1.562-.664 1.562-1.562v-4.375c0-.508.39-.938.938-.938a.95.95 0 0 1 .937.938v4.374A3.443 3.443 0 0 1 16.063 22H5.438A3.42 3.42 0 0 1 2 18.563V7.938A3.443 3.443 0 0 1 5.438 4.5"/>
</svg>
